images_sukapura_svg/cmd/sc_symbolshapes.right-brace.svg

<svg viewBox="0 0 16 16" xmlns="http://www.w3.org/2000/svg">/&amp;gt;<path d="m6 0c1.104522 0 2 .8954778 2 2v4 1c0 .2761493.2238577.5.5.5h.5v1h-.5c-.2761423 0-.5.2238507-.5.5v1 1 3c0 1.104597-1 2-2 2h-1v-1h1c.5522843 0 1-.447701 1-1v-3-1-1c0-.382499.1392847-.7350257.375-1-.2357153-.2649743-.375-.617501-.375-1v-1-.28125-3.71875c0-.5522986-.4477765-1-1-1h-1v-1z" fill="#0a84ff"/></svg>

<?xml version="1.0" encoding="UTF-8" standalone="no"?>
<svg
   xmlns:dc="http://purl.org/dc/elements/1.1/"
   xmlns:cc="http://creativecommons.org/ns#"
   xmlns:rdf="http://www.w3.org/1999/02/22-rdf-syntax-ns#"
   xmlns:svg="http://www.w3.org/2000/svg"
   xmlns="http://www.w3.org/2000/svg"
   xmlns:sodipodi="http://sodipodi.sourceforge.net/DTD/sodipodi-0.dtd"
   xmlns:inkscape="http://www.inkscape.org/namespaces/inkscape"
   viewBox="0 0 16 16"
   version="1.1"
   id="svg4"
   sodipodi:docname="sc_symbolshapes.right-brace.svg"
   inkscape:export-filename="D:\Rizmut\libreoffice-style-sukapura-master\images_sukapura\cmd\sc_symbolshapes.left-brace.png"
   inkscape:export-xdpi="96"
   inkscape:export-ydpi="96"
   inkscape:version="0.92.3 (2405546, 2018-03-11)"><metadata
   id="metadata10">
  <rdf:RDF>
    <cc:Work
       rdf:about="">
      <dc:format>image/svg+xml</dc:format>
      <dc:type
         rdf:resource="http://purl.org/dc/dcmitype/StillImage" />
      <dc:title></dc:title>
    </cc:Work>
  </rdf:RDF>
</metadata>
<defs
   id="defs8">
  <linearGradient
     gradientTransform="translate(-24,-11)"
     id="a"
     gradientUnits="userSpaceOnUse"
     x1="12"
     x2="12"
     y1="21.5"
     y2="2.5">
    <stop
       offset="0"
       stop-color="#e5eefc"
       id="stop2" />
    <stop
       offset="1"
       stop-color="#fcfdff"
       id="stop4" />
  </linearGradient>
</defs>
<sodipodi:namedview
   pagecolor="#ffffff"
   bordercolor="#666666"
   borderopacity="1"
   objecttolerance="10"
   gridtolerance="10"
   guidetolerance="10"
   inkscape:pageopacity="0"
   inkscape:pageshadow="2"
   inkscape:window-width="1366"
   inkscape:window-height="716"
   id="namedview6"
   showgrid="true"
   inkscape:zoom="14.75"
   inkscape:cx="-1.6610169"
   inkscape:cy="8"
   inkscape:window-x="-8"
   inkscape:window-y="-8"
   inkscape:window-maximized="1"
   inkscape:current-layer="svg4">
  <inkscape:grid
     type="xygrid"
     id="grid817" />
</sodipodi:namedview>
/&gt;<path
   d="M 6,0 C 7.104522,0 8,0.8954778 8,2 V 6 7 C 8,7.2761493 8.2238577,7.5 8.5,7.5 H 9 v 1 H 8.5 C 8.2238577,8.5 8,8.7238507 8,9 v 1 1 3 c 0,1.104597 -1,2 -2,2 H 5 v -1 h 1 c 0.5522843,0 1,-0.447701 1,-1 V 11 10 9 C 7,8.617501 7.1392847,8.2649743 7.375,8 7.1392847,7.7350257 7,7.382499 7,7 V 6 5.71875 2 C 7,1.4477014 6.5522235,1 6,1 H 5 V 0 Z"
   id="path2"
   style="fill:#0a84ff;fill-opacity:1"
   inkscape:connector-curvature="0" />
</svg>
